X: 217
T: Charlie Doran's Polka
B: australian dance tunes
M:2/4
L:1/8
R: Polka
Q: 1/4=100
K:D
V:1 
|:D>E F>E|DF AB/2c/2|dD dD/2d/2|cB B2|!
E>F G>F|EF G>d||
c2(3BcB ABcd||
ed d2:|!
|:A2 A>G|FF F>E|DE F>B|AG G2|!
G2 G>D|EE E2|cB AB/2c/2|ed d2:|!
% abcbook-tune_id 62a0785080e698b843349df7


% abcbook-boost 0
% abcbook-tablature 
% abcbook-transpose 
% abcbook-lastupdated 1654683750372
% abcbook-soundfonts 
% abcbook-repeats 1


